!!!COM:	la Rue, Pierre de
!!!CDT:	~1452///-1518/11/20
!!!OPR:	Missa Puer natus est nobis
!!!ONM:	1
!!!OTL:	Kyrie
!!!AGN:	Mass; Kyrie
!!!SCT:	Rue1025a
!!!SCA:	Rue1025a
!!!voices-OPR:	4
!!!voices:	4
**kern	**kern	**kern	**kern
*Ivox	*Ivox	*Ivox	*Ivox
*I"Bassus	*I"Tenor	*I"Contra	*I"Discantus
*I'B	*I'T	*I'C	*I'D
*staff4	*staff3	*staff2	*staff1
*>[A,B,C]	*>[A,B,C]	*>[A,B,C]	*>[A,B,C]
*>A	*>A	*>A	*>A
*clefF4	*clefGv2	*clefGv2	*clefG2
*k[b-]	*k[b-]	*k[b-]	*k[b-]
*M3/1	*M3/1	*M3/1	*M3/1
*met(O)	*met(O)	*met(O)	*met(O)
!!section: Kyrie I
!!!OMD: Kyrie I
=1-	=1-	=1-	=1-
0G	0.r	0G	0g
1B-	.	1G	1dd
=2	=2	=2	=2
2B-\	0.r	0d	1.dd
1B-	.	.	.
4A\	.	.	4cc\
4G\	.	.	4b-\
2F\	.	1d	2a/
2G\	.	.	2b-\
=3	=3	=3	=3
1C	0.r	0e-i	1cc
2r	.	.	2b-\
2.C/	.	.	2.cc\
.	.	1e-i	.
4D\	.	.	4b-\
4E-i\	.	.	4a/
4F\	.	.	4g/
=4	=4	=4	=4
2G\	0.r	2d\	2b-\
2C/	.	2.e-i\	2.cc\
1E-i	.	.	.
.	.	4d\	4b-\
.	.	1g	4a/
.	.	.	4g/
1D	.	.	1a
.	.	2f#i\	.
=5	=5	=5	=5
1r	0G	0.g	1g
2r	.	.	2r
1G	.	.	1b-
.	1d	.	.
4F\	.	.	4a/
4E\	.	.	4g/
=6	=6	=6	=6
2.D\	0d	1r	2.f/
4E\	.	.	4g/
2F\	.	1r	2a/
2G\	.	.	2d/
2.D\	1r	1f	2a/
.	.	.	2b-\
4E\	.	.	.
=7	=7	=7	=7
2F\	0.d	2f\	2a/
2G\	.	2B-\	1dd
2.D\	.	2.f\	.
.	.	.	1cc
4E\	.	4g\	.
2F\	.	2a\	.
2G\	.	[2g\	2b-\
=8	=8	=8	=8
1C	0e-i	4g\]	1cc
.	.	4f\	.
.	.	4e-i\	.
.	.	4d\	.
2r	.	2.c\	2r
2E-i\	.	.	2g/
.	.	4B-\	.
2F\	1d	2A/	2a/
2G\	.	4G/	2b-\
.	.	4F/	.
=9	=9	=9	=9
2C/	2c\	2G/	2cc\
2.F\	2.d\	1A	2.a/
4E\	4c\	.	4g/
4D\	1c	1G	4f/
4C/	.	.	4e/
1D	.	.	1f
.	2Bni\	2F/	.
=10	=10	=10	=10
1C	0c	2G/	2e/
.	.	2.A/	2cc\
1r	.	.	2a/
.	.	4G/	.
.	.	4E/	2.cc\
.	.	4F/	.
1E-	1r	1G	.
.	.	.	4b-\
.	.	.	4a/
.	.	.	4g/
=11	=11	=11	=11
2D\	0.d	2A/	2f/
2.G\	.	2G/	2.b-\
.	.	2.B-\	.
4F\	.	.	4cc\
2.D\	.	.	2.dd\
.	.	4c\	.
.	.	2.d\	.
4E\	.	.	4cc\
[2F\	.	.	[2a/
.	.	4c\	.
=12	=12	=12	=12
4F\]	0c	2.A/	4a/]
4E\	.	.	4b-\
2.C/	.	.	2.cc\
.	.	4B-\	.
.	.	2.c\	.
4D\	.	.	4b-\
1E-	.	.	2.g/
.	.	4B-\	.
.	1e-i	2.G/	.
.	.	.	4a/
4D\	.	.	[2b-\
4C/	.	4A/	.
=13	=13	=13	=13
4BB-/	0.d	2.B-\	4b-\]
4C/	.	.	4a/
4D\	.	.	4f/
4E\	.	4A/	4g/
2F\	.	2F/	2a/
2G\	.	2B-\	1g
1D	.	1A	.
.	.	.	2f#i/
=14	=14	=14	=14
0.Gl	0.dl	0.Gl	0.gl
!!LO:LB:i:g=z
=15||	=15||	=15||	=15||
*>B	*>B	*>B	*>B
*clefF4	*clefGv2	*clefGv2	*clefG2
*k[b-]	*k[b-]	*k[b-]	*k[b-]
*M2/1	*M2/1	*M2/1	*M2/1
*met(C|)	*met(C|)	*met(C|)	*met(C|)
!!section: Christe
!!!OMD: Christe
1r	0G	1d	0r
[1G	.	2d\	.
.	.	[2B-\	.
=16	=16	=16	=16
2G\]	1G	2B-\]	0r
4F\	.	4A/	.
4E\	.	4G/	.
2.D\	[1d	2.F/	.
4E\	.	4G/	.
=17	=17	=17	=17
2F\	1d]	2A/	0r
2.G\	.	2.B-\	.
.	1d	.	.
4F\	.	4A/	.
4E\	.	4G/	.
4D\	.	4F/	.
=18	=18	=18	=18
[0C	[0e-i	2c\	1r
.	.	4B-\	.
.	.	4A/	.
.	.	2G/	[1cc
.	.	2A/	.
=19	=19	=19	=19
0C]	0e-_	2G/	2cc\]
.	.	1c	4b-\
.	.	.	4a/
.	.	.	2.g/
.	.	4B-\	.
.	.	4A/	4a/
=20	=20	=20	=20
0r	0e-]	2G/	2b-\
.	.	2.g\	2.cc\
.	.	4f\	4b-\
.	.	2g\	4a/
.	.	.	4g/
=21	=21	=21	=21
0r	0d	1a	2.f/
.	.	.	4g/
.	.	[1f	2a/
.	.	.	2f/
=22	=22	=22	=22
1r	1d	1f]	2a/
.	.	.	2b-\
2.C/	[1c	1g	2.cc\
4D\	.	.	4b-\
=23	=23	=23	=23
2E\	1c]	2e\	1g
2C/	.	1g	.
2E\	1c	.	1r
2F\	.	4f\	.
.	.	4e\	.
=24	=24	=24	=24
0G	[0B-	1d	1r
.	.	1r	2.d/
.	.	.	4e/
=25	=25	=25	=25
0r	0B-]	0r	2f/
.	.	.	2d/
.	.	.	2f/
.	.	.	2g/
=26	=26	=26	=26
2.D\	0A	1r	0a
4E\	.	.	.
2F\	.	[1f	.
2D\	.	.	.
=27	=27	=27	=27
2F\	0r	2f\]	1r
2G\	.	4e\	.
.	.	4d\	.
[1A	.	2.c\	[1cc
.	.	4d\	.
=28	=28	=28	=28
2A\]	0c	2e\	2cc\]
4G\	.	2.e\	4b-\
4F\	.	.	4a/
2E\	.	.	2g/
.	.	4d\	.
[2F\	.	4c\	[2a/
.	.	4B-\	.
=29	=29	=29	=29
4F\]	1c	2A/	4a/]
4E\	.	.	4g/
4D\	.	1B-	4f/
4C/	.	.	4e/
1BB-	1d	.	1f
.	.	2B-\	.
=30	=30	=30	=30
1C	0c	2G/	2e/
.	.	2.c\	2a/
2r	.	.	1a
.	.	4B-\	.
2F\	.	[2A/	.
=31	=31	=31	=31
1G	1r	2A/]	1b-
.	.	2G/	.
2.F\	2r	2A/	2.a/
.	2c\	[2f\	.
4E\	.	.	4g/
=32	=32	=32	=32
2F\	1c	2f\]	4a/
.	.	.	4g/
2A\	.	4e\	1cc
.	.	4f\	.
1G	1d	1g	.
.	.	.	2bni\
=33	=33	=33	=33
2r	1e	1g	1cc
2C/	.	.	.
2D\	2f\	2d\	2r
2C/	[2e\	[2g\	2cc\
=34	=34	=34	=34
2E\	4e\]	2g\]	1cc
.	4d\	.	.
2F\	1c	4f\	.
.	.	4e\	.
1D	.	1f	1dd
.	2Bni\	.	.
=35	=35	=35	=35
2r	0c	4e\	0ee
.	.	4d\	.
2C/	.	2.e\	.
1C	.	.	.
.	.	4d\	.
.	.	[2c\	.
=36	=36	=36	=36
1D	0r	2c\]	1ff
.	.	2Bni\	.
[1C	.	2c\	4ee\
.	.	.	4dd\
.	.	[2c\	[2ee\
=37	=37	=37	=37
1C]	0r	2c\]	4ee\]
.	.	.	4dd\
.	.	2c\	1cc
1G	.	1d	.
.	.	.	2bni\
=38	=38	=38	=38
1C	0r	4c\	0cc
.	.	4d\	.
.	.	4e\	.
.	.	4f\	.
2r	.	2g\	.
2F\	.	[2a\	.
=39	=39	=39	=39
1F	0r	4a\]	0r
.	.	4g\	.
.	.	1f	.
1G	.	.	.
.	.	2e\	.
=40	=40	=40	=40
0F	[0c	0f	0r
=41	=41	=41	=41
1r	0c]	1r	1r
1F	.	1f	1a
=42	=42	=42	=42
0F	0c	0f	0a
=43	=43	=43	=43
*^	*	*	*
0BB-	0B-	[0d	0f	0b-
*v	*v	*	*	*
=44	=44	=44	=44
[0Fl	1d]	[0fl	[0al
.	1c	.	.
=45	=45	=45	=45
0F]	0cl	0f]	0a]
!!LO:LB:i:g=z
=46||	=46||	=46||	=46||
*>C	*>C	*>C	*>C
*clefF4	*clefGv2	*clefGv2	*clefG2
*k[b-]	*k[b-]	*k[b-]	*k[b-]
*M3/1	*M3/1	*M3/1	*M3/1
*met(O|)	*met(O|)	*met(O|)	*met(O|)
!!section: Kyrie II
!!!OMD: Kyrie II
0F	1c	0f	0a
.	2c\	.	.
.	1d	.	.
1D	.	1f	1b-
.	2d\	.	.
=47	=47	=47	=47
1C	2e\	2.g\	2.cc\
.	1c	.	.
.	.	4f\	4b-\
2F\	.	4e\	2a/
.	.	4d\	.
2G\	2B-\	1g	2g/
1A	1A	.	1cc
.	.	2f\	.
=48	=48	=48	=48
2r	0G	2.g\	2b-\
1B-	.	.	1dd
.	.	4f\	.
.	.	2d\	.
4A\	.	2e\	4cc\
4G\	.	.	4b-\
2F\	1r	2f\	2a/
2G\	.	2d\	2b-\
=49	=49	=49	=49
2E\	0.r	2e\	2g/
2F\	.	2c\	1a
1D	.	2d\	.
.	.	2B-\	4g/
.	.	.	4f/
2C/	.	2c\	2e/
[2D\	.	2A/	2f/
=50	=50	=50	=50
4D\]	0.r	2B-\	2.d/
4E\	.	.	.
4F\	.	4A/	.
4G\	.	4B-\	4c/
2E\	.	2G/	2c/
2D\	.	2A/	2.d/
1r	.	1d	.
.	.	.	4e/
.	.	.	4f/
.	.	.	4g/
=51	=51	=51	=51
1r	0.r	2c\	4.e/
.	.	.	8d/
.	.	4d\	1d
.	.	4e\	.
1r	.	4f\	.
.	.	4g\	.
.	.	2e\	2c#i/
[1D	.	1d	1d
=52	=52	=52	=52
2D\]	2r	1A	2r
2F\	1d	.	2a/
2G\	.	1r	2b-\
2A\	2c\	.	2cc\
1D	4d\	1r	2a/
.	4e\	.	.
.	4f\	.	[2dd\
.	4g\	.	.
=53	=53	=53	=53
1A	1e	2r	2dd\]
.	.	1a	2cc#i\
0D	2r	.	1dd
.	1d	2d\	.
.	.	[1d	2r
.	2G/	.	[2dd\
=54	=54	=54	=54
2r	2.G/	1d]	2dd\]
1G	.	.	2g/
.	4A/	.	.
.	2B-\	2r	1g
2C/	2.c\	1g	.
1C	.	.	2r
.	4B-\	.	.
.	4A/	2c\	[2cc\
.	4G/	.	.
=55	=55	=55	=55
2r	2.F/	1c	2cc\]
1F	.	.	2f/
.	4G/	.	.
.	2A/	2r	1f
2BB-/	2.B-\	2.d\	.
[1BB-	.	.	2r
.	4c\	4e\	.
.	[2d\	[2f\	[2b-\
=56	=56	=56	=56
1BB-]	2d\]	2f\]	2b-\]
.	4c\	4e\	4a/
.	4B-\	4d\	4g/
2r	2c\	2e\	2a/
2.B-\	2.d\	2f\	2b-\
.	.	2d\	2g/
4A\	4c\	.	.
2G\	4d\	2g\	2b-\
.	4e\	.	.
=57	=57	=57	=57
2F\	2f\	2a\	2a/
1G	1d	2b-\	2g/
.	.	1g	2b-\
4F\	2.c\	.	2cc\
4E\	.	.	.
1D	.	2f\	1dd
.	4Bni\	.	.
.	2Bni\	2d\	.
=58	=58	=58	=58
0C	1c	2.g\	2.ee-i\
.	.	4f\	4dd\
.	2c\	4e\	4cc\
.	.	4d\	4b-\
.	1e-i	1c	2.cc\
1C	.	.	.
.	.	.	4b-\
.	2e-i\	2c\	4a/
.	.	.	4g/
=59	=59	=59	=59
2.D\	1d	1f	4f/
.	.	.	4e-i/
.	.	.	4b-\
4E-i\	.	.	4a/
2F\	4c\	4f\	4a/
.	4B-\	4e\	4g/
2G\	4A/	4d\	1g
.	4G/	4c\	.
1D	1A	1d	.
.	.	.	2f#i/
=60	=60	=60	=60
0.GGl	0.Gl	0.dl	0.gl
==	==	==	==
*-	*-	*-	*-
!!!RDF**kern: l=long note in original notation
!!!RDF**kern: i=editorial accidental
!!!ENC:	Chris Gage 05-11-2013
!!!END:	2013/08/01/
!!!EED:	Jesse Rodin
!!!EEV:	2013/08/02/
!!!ONB:	Translated from MusicXML and edited on 2013/08/02/ by Craig Sapp
!!muse2ps: T^@{OPR}^u^@{ONM}{. }@{OTL}^C^@{COM}^i2I150v85,85,85,150Q16
